icons/.local/share/icons/Tela/scalable/devices/drive-harddisk-ieee1394.svg

<svg width="64" height="64" version="1" xmlns="http://www.w3.org/2000/svg" xmlns:xlink="http://www.w3.org/1999/xlink">
 <rect transform="matrix(0 -1 -1 0 0 0)" x="-58" y="-53" width="52" height="42" rx="3" ry="3" fill="#666"/>
 <circle cx="32" cy="31" r="16" fill="#fff" paint-order="markers stroke fill"/>
 <circle cx="32" cy="31" r="14" fill="#537bbc" paint-order="markers stroke fill"/>
 <g fill="#fff">
  <path d="m29.309 37.485h5.387v2.02h-5.387zm0 3.367h5.387v2.02h-5.387zm2.693-14.142a4.714 4.714 0 0 0-4.714 4.714 4.714 4.714 0 0 0 4.714 4.714 4.714 4.714 0 0 0 4.714-4.714 4.714 4.714 0 0 0-4.714-4.714zm0 2.02a2.694 2.694 0 0 1 2.694 2.694 2.694 2.694 0 0 1-2.694 2.694 2.694 2.694 0 0 1-2.693-2.694 2.694 2.694 0 0 1 2.693-2.694zm6.188 0.27-3.809-3.81 3.81-3.809 3.809 3.81zm-8.571-3.81-3.81 3.81-1.428-1.429 3.81-3.81zm-2.381-2.38-3.81 3.809-1.428-1.429 3.81-3.809z"/>
 </g>
</svg>

<svg xmlns="http://www.w3.org/2000/svg" xmlns:xlink="http://www.w3.org/1999/xlink" width="64" height="64" version="1"><defs><linearGradient xlink:href="#a" id="b" x1="30.656" y1="48.703" x2="53" y2="48.703" gradientUnits="userSpaceOnUse"/><linearGradient id="a"><stop offset="0"/><stop offset="1" stop-opacity="0"/></linearGradient></defs><rect width="52" height="42" x="-58" y="-53" rx="3" ry="3" transform="matrix(0 -1 -1 0 0 0)" fill="#666"/><path d="M53 39.406A37.5 37.5 0 0 1 30.656 58H50c1.662 0 3-1.338 3-3z" opacity=".25" fill="url(#b)"/><circle cx="32" cy="31" r="16" fill="#fff" paint-order="markers stroke fill"/><circle r="14" cy="31" cx="32" fill="#537bbc" paint-order="markers stroke fill"/><g fill="#fff"><path d="M29.309 37.485h5.387v2.02h-5.387zM29.309 40.852h5.387v2.02h-5.387zM32.002 26.71a4.714 4.714 0 0 0-4.714 4.714 4.714 4.714 0 0 0 4.714 4.714 4.714 4.714 0 0 0 4.714-4.714 4.714 4.714 0 0 0-4.714-4.714zm0 2.02a2.694 2.694 0 0 1 2.694 2.694 2.694 2.694 0 0 1-2.694 2.694 2.694 2.694 0 0 1-2.693-2.694 2.694 2.694 0 0 1 2.693-2.694zM38.19 29l-3.809-3.81 3.81-3.809L42 25.191zM29.619 25.19L25.809 29l-1.428-1.429 3.81-3.81zM27.238 22.81l-3.81 3.809L22 25.19l3.81-3.809z"/></g></svg>
